X: 7052
T: Chloe's Passion
R: slip jig
M: 9/8
K: Eminor
|:Bef gaf gee|Bef gee fdd|Bef gaf gee|fdf agf gee:|
|:B3 gfe faa|B3 gfe fdd|B3 gfe faa|fdf agf gee:|
|:B3 GAB A3|B2B GBd Bdg|fde faf gee|fdf agf gee:|
|:fge edB e2g|fdd dBA dBA|fge edB e2g|fdf agf gee:|

